logo/vwo.svg

<?xml version="1.0" encoding="UTF-8"?>
<svg width="512px" height="170px" viewBox="0 0 512 170" version="1.1" xmlns="http://www.w3.org/2000/svg" xmlns:xlink="http://www.w3.org/1999/xlink" preserveAspectRatio="xMidYMid">
    <g>
        <path d="M427.708635,0 C424.563543,0 420.790115,0 417.645023,0.626628033 L399.404513,32.5556314 C407.581411,27.546022 417.645023,25.0429247 427.708635,25.0429247 C460.416228,25.0429247 487.461972,51.9623186 487.461972,84.51795 C487.461972,117.073581 460.416228,143.992975 427.708635,143.992975 C395.001042,143.992975 368.583634,117.698502 367.955298,85.144578 L349.086452,117.073581 C361.665114,147.749329 392.485993,169.0359 427.0803,169.0359 C473.624932,169.0359 511.992667,130.845739 511.992667,84.51795 C512.62271,38.1901614 474.253268,0 427.708635,0 Z" fill="#BF3078"></path>
        <path d="M171.083113,88.2743033 L185.550195,63.2313786 L218.257788,118.951758 L255.99548,54.4671233 L293.733171,118.951758 L358.520022,9.39088333 C361.665114,3.75635333 367.955298,0 374.873818,0 L393.114328,0 L293.734879,169.0359 L255.997187,104.551265 L218.257788,169.0359 L171.083113,88.2743033 L171.083113,88.2743033 Z" fill="#802050"></path>
        <path d="M198.130564,0 L98.7511143,169.0359 L0,0 L18.2405103,0 C25.1590302,0 31.4492146,3.75635333 34.5943068,9.39088333 L98.7511143,119.576679 L163.536257,9.39088333 C166.681349,3.75635333 172.969826,0 179.890054,0 L198.130564,0 Z" fill="#26134D"></path>
    </g>
</svg>

<svg viewBox="0 0 512 170" xmlns="http://www.w3.org/2000/svg"><path fill="#BF3078" d="M427.7 0c-3.15 0-6.92 0-10.07.62l-18.25 31.92c8.17-5.01 18.24-7.52 28.3-7.52 32.7 0 59.75 26.91 59.75 59.47 0 32.55-27.05 59.47-59.76 59.47 -32.71 0-59.13-26.3-59.76-58.85l-18.87 31.92c12.57 30.67 43.39 51.96 77.99 51.96 46.54 0 84.91-38.2 84.91-84.52 .63-46.33-37.74-84.52-84.29-84.52Z"/><path fill="#802050" d="M171.08 88.27l14.46-25.05 32.7 55.72 37.73-64.49 37.73 64.48L358.48 9.36c3.14-5.64 9.43-9.4 16.35-9.4h18.24l-99.38 169.03 -37.74-64.49 -37.74 64.48 -47.18-80.77v0Z"/><path fill="#26134D" d="M198.13 0L98.75 169.03 -.01-.01h18.24c6.91 0 13.2 3.75 16.35 9.39l64.15 110.18L163.51 9.37c3.14-5.64 9.43-9.4 16.35-9.4h18.24Z"/></svg>
